X: 36677
T: She Hasn't The Thing She Thought She Had
R: slide
M: 12/8
K: Dmajor
|:A2 G|FGA DFd c2 B A2 G|FAF D2 F E3 A3|
F^EF D2 d c2 B A2 G|FDF ECE D3:|
|:d2 e|f2 e d2 A BB/c/d A2 d|f2 e def e3 A3|
f^ef d2 A B/c/dB AdG|FDF ECE D3:|

